icons/opthalmology.svg

<svg width="48" height="48" viewBox="0 0 48 48" fill="none" xmlns="http://www.w3.org/2000/svg">
<path d="M27.5 24.4C27.5 26.333 25.933 27.9 24 27.9C22.067 27.9 20.5 26.333 20.5 24.4C20.5 22.467 22.067 20.9 24 20.9C24.8693 20.9 25.6645 21.2169 26.2765 21.7415C26.1217 21.6516 25.9419 21.6001 25.75 21.6001C25.1701 21.6001 24.7 22.0702 24.7 22.6501C24.7 23.23 25.1701 23.7001 25.75 23.7001C26.3299 23.7001 26.8 23.23 26.8 22.6501C26.8 22.4582 26.7485 22.2784 26.6587 22.1236C27.1832 22.7356 27.5 23.5308 27.5 24.4Z" fill="black"/>
<path fill-rule="evenodd" clip-rule="evenodd" d="M24.0368 16C30.3 16 38 24.4 38 24.4C38 24.4 30.3 32.8 24.0368 32.8C17.7737 32.8 10 24.4 10 24.4C10 24.4 17.7737 16 24.0368 16ZM12.835 24.4C13.615 23.664 14.673 22.722 15.8902 21.7845C16.3024 21.467 16.729 21.153 17.1656 20.8495C16.6126 21.9119 16.3 23.1195 16.3 24.4C16.3 25.6805 16.6126 26.8881 17.1656 27.9505C16.729 27.647 16.3024 27.333 15.8902 27.0155C14.673 26.078 13.615 25.136 12.835 24.4ZM31.7 24.4C31.7 23.0993 31.3775 21.8739 30.8081 20.7995C31.2651 21.1171 31.7113 21.4468 32.1415 21.7804C33.3527 22.7198 34.4041 23.6636 35.1777 24.4C34.4041 25.1364 33.3527 26.0802 32.1415 27.0196C31.7113 27.3532 31.2651 27.6829 30.8081 28.0005C31.3775 26.9261 31.7 25.7007 31.7 24.4ZM24 30.1C27.148 30.1 29.7 27.548 29.7 24.4C29.7 21.252 27.148 18.7 24 18.7C20.852 18.7 18.3 21.252 18.3 24.4C18.3 27.548 20.852 30.1 24 30.1Z" fill="black"/>
<path fill-rule="evenodd" clip-rule="evenodd" d="M6 9C6 7.34315 7.34315 6 9 6H39C40.6569 6 42 7.34315 42 9V39C42 40.6569 40.6569 42 39 42H9C7.34315 42 6 40.6569 6 39V9ZM8 9C8 8.44772 8.44771 8 9 8H39C39.5523 8 40 8.44771 40 9V39C40 39.5523 39.5523 40 39 40H9C8.44772 40 8 39.5523 8 39V9Z" fill="black"/>
</svg>

<svg
  xmlns="http://www.w3.org/2000/svg"
  width="24"
  height="24"
  viewBox="0 0 24 24"
  fill="none"
  stroke="currentColor"
  stroke-width="2"
  stroke-linecap="round"
  stroke-linejoin="round"
>
  <path d="M27.5 24.4a3.5 3.5 0 1 1-1.224-2.658 1.05 1.05 0 1 0 .382.382c.525.612.842 1.407.842 2.276" />
  <path
    fill-rule="evenodd"
    d="M24.037 16C30.3 16 38 24.4 38 24.4s-7.7 8.4-13.963 8.4S10 24.4 10 24.4 17.774 16 24.037 16m-11.202 8.4a41 41 0 0 1 3.055-2.615q.62-.479 1.276-.936A7.7 7.7 0 0 0 16.3 24.4c0 1.28.313 2.488.866 3.55a32 32 0 0 1-1.276-.934 41 41 0 0 1-3.055-2.616m18.865 0c0-1.3-.322-2.526-.892-3.6.457.317.903.647 1.334.98a40 40 0 0 1 3.036 2.62 40 40 0 0 1-3.036 2.62c-.43.333-.877.663-1.334.98.57-1.074.892-2.3.892-3.6M24 30.1a5.7 5.7 0 1 0 0-11.4 5.7 5.7 0 0 0 0 11.4"
    clip-rule="evenodd"
  />
  <path
    fill-rule="evenodd"
    d="M6 9a3 3 0 0 1 3-3h30a3 3 0 0 1 3 3v30a3 3 0 0 1-3 3H9a3 3 0 0 1-3-3zm2 0a1 1 0 0 1 1-1h30a1 1 0 0 1 1 1v30a1 1 0 0 1-1 1H9a1 1 0 0 1-1-1z"
    clip-rule="evenodd"
  />
</svg>
